X:1
T:James Gibb editions
T:Kyrie in B flat  - Schubert
T:#
%%score [ 1 2 3 4 ]
L:1/8
Q:1/4=96
M:2/2
K:Bb
V:1 treble nm="Soprano" snm="S"
V:2 treble nm="Alto" snm="A"
V:3 treble-8 nm="Tenor" snm="T"
V:4 bass nm="Bass" snm="B"
V:1
"^Kyrie in B flat, D 45""^Franz Schubert\n(1797-1828)" d7/2 B/ B2 z B |!<(! B4 c2!<)! d2 | %2
w: Ky- ri- e e-|lei- son, e\-|
!>(! (f3 e)!>)! e2 z2 |!>(! e7/2 c/!>)! c2 z c |!<(! (c2 g2)!<)!!>(! f2 e2!>)! | %5
w: lei\- * son,|Ky- ri- e e-|lei\- * son, e\-|
[M:2/2]!ff! (e7/2 d/) d2 z2 |!p!!>(! g7/2 e/ e4!>)! | z4!pp! e4 | d4 d4 | c6 c2 | B4 z4 || %11
w: lei\- * son,|Ky- ri- e|e-|lei- son,|Ky- ri-|e.|
!f! d4 d2 d2 | (f2 e2) d4 | (c7/2 B/) A2 G2 | G4 ^F4 | z8 |!pp! G4 G2 G2 | (_A4 ^F4) | G6 z2 | z8 | %20
w: Chri- ste e-|lei- * son,|Chri\- * ste e-|lei- son,||Chri- ste e-|lei\- *|son,||
!p! _A4 A2 A2 |!>(! =B8!>)! | c6 z2 |!p! c4 c2 ^c2 |!>(! d4!>)! !courtesy!=c4 | z8 || %26
w: Chri- ste e-|lei-|son,|Chri- ste e-|lei- son.||
 d7/2 B/ B2 z B |!<(! B4 c2!<)! d2 |!>(! (f3 e)!>)! e4 | e7/2 c/ c2 z c | (c2 g2) (f2 e2) | %31
w: Ky- ri- e e-|lei- son, e-|lei\- * son,|Ky- ri- e e-|lei\- * son, *|
!>(! e7/2 d/ d2!>)! z2 |!ff!!>(! g7/2 e/ e4!>)! | z4!pp![Q:1/4=94] e4 |[Q:1/4=92] d4[Q:1/4=89] d4 | %35
w: Ky- ri- e,|Ky- ri- e|e-|lei- son,|
[Q:1/4=87] c6[Q:1/4=84] c2 |[Q:1/4=83] B4[Q:1/4=81] z4 |] %37
w: Ky- ri-|e.|
V:2
 F7/2 F/ F2 z F |!<(! F4 A2!<)! B2 |!>(!!>(! c4!>)!!>)! c2 z2 |!>(! A7/2 A/!>)! A2 z A | %4
w: Ky- ri- e e-|lei- son, e\-|lei- son,|Ky- ri- e e-|
!<(! A4!<)!!>(! B2 A2!>)! |[M:2/2]!ff! (A7/2 B/) B2 z2 |!p!!>(! B7/2 B/ B4!>)! | z4!pp! c4 | %8
w: lei- son, e\-|~lei\- * son,|Ky- ri- e|e-|
 c4 B4 | B6 A2 | B4 z4 ||!f! G4 G2 G2 | G4 G4 | E4 E2 =E2 | D4 D4 | z8 |!pp! D4 D2 D2 | %17
w: lei- son,|Ky- ri-|e.|Chri- ste e-|lei- son,|Chri- ste e-|lei- son,||Chri- ste e-|
 (E4 D2 C2) | =B,6 z2 | z8 | z4!p! C4 |!>(! D8!>)! | C6 z2 |!p! G4 G2 G2 |!>(! F4!>)! F4 | z8 || %26
w: lei\- * *|son,||e-|lei-|son,|Chri- ste e-|lei- son.||
 F7/2 F/ F2 z F |!<(! F4 A2!<)! B2 |!>(! c4!>)! c4 | A7/2 A/ A2 z A | A4 (B2 A2) | %31
w: Ky- ri- e e-|lei- son, e-|lei- son,|Ky- ri- e e-|lei- son, *|
!>(! A7/2 B/ B2!>)! z2 |!ff!!>(! B7/2 B/ B4!>)! | z4!pp! c4 | c4 B4 | B6 A2 | B4 z4 |] %37
w: Ky- ri- e,|Ky- ri- e|e-|lei- son,|Ky- ri-|e.|
V:3
 d7/2 f/ f2 z f |!<(! f4 e2!<)! d2 |!>(! (c3 f)!>)! f2 z2 |!>(! f7/2 f/!>)! f2 z f | %4
w: Ky- ri- e e-|lei- son, e\-|lei\- * son,|Ky- ri- e e-|
!<(! f4!<)!!>(! f2 f2!>)! |[M:2/2][K:treble-8]!ff! (^f7/2 g/) g2 z2 |!p!!>(! e7/2 e/ e4!>)! | %7
w: lei- son, e\-|lei\- * son,|Ky- ri- e|
 z4!pp! _g4 | f4 !courtesy!=g4 | (g4 f2) (fe) | d4 z4 ||!f! B4 B2 B2 | c4 B4 | (A7/2 B/) c2 B2 | %14
w: e-|lei- son,|Ky\- * ri\- *|e.|Chri- ste e-|lei- son,|Chri\- * ste e-|
 B4 A4 | z8 |!pp! G4 G2 G2 | (c4 !courtesy!=A4) | G6 z2 |!p! G4 G2 G2 | G4 F2 F2 |!>(! _A8!>)! | %22
w: lei- son,||Chri- ste e-|lei\- *|son,|Chri- ste e-|lei- son, e-|lei-|
 G6 z2 |!p! c4 c2 B2 |!>(! B4!>)! A4 | z8 || d7/2 f/ f2 z f |!<(! f4 e2!<)! d2 | %28
w: son,|Chri- ste e-|lei- son.||Ky- ri- e e-|lei- son, e-|
!>(! (c3 f)!>)! f4 | f7/2 f/ f2 z f | f4 f4 |!>(! ^f7/2 g/ g2!>)! z2 |!ff!!>(! e7/2 e/ e4!>)! | %33
w: lei\- * son,|Ky- ri- e e-|lei- son,|Ky- ri- e,|Ky- ri- e|
 z4!pp! _g4 | f4 !courtesy!=g4 | (g4 f2) (fe) | d4 z4 |] %37
w: e-|lei- son,|Ky\- * ri\- *|e.|
V:4
 B,7/2 D/ D2 z D |!<(! D4 C2!<)! B,2 |!>(! A,4!>)! A,2 z2 |!>(! C7/2 E/!>)! E2 z E | %4
w: Ky- ri- e e-|lei- son, e\-|lei- son,|Ky- ri- e e-|
!<(! E4!<)!!>(! D2 C2!>)! |[M:2/2]!ff! (C7/2 B,/) B,2 z2 |!p!!>(! E,7/2 G,/ G,4!>)! | %7
w: lei- son, e\-|~lei\- * son,|Ky- ri- e|
!pp! (G,4 A,4) | B,4 G,4 | E,4 F,4 | B,,4 z4 ||!f! G,4 G,2 G,2 | C,4 G,4 | C,4 C,2 ^C,2 | D,4 D,4 | %15
w: e\- *|lei- son,|Ky- ri-|e.|Chri- ste e-|lei- son,|Chri- ste e-|lei- son,|
!pp! D,4 D,2 C,2 | B,,4 B,,2 B,,2 | (C,4 D,4) | G,,6 z2 | z8 | z4 z2!p! F,2 |!>(! F,8!>)! | %22
w: Chri- ste e-|lei- ­~son, e-|lei\- *|son,||e-|lei-|
 E,4!p! E,4 | E,4 =E,2 E,2 |!>(! F,4!>)! F,4 | z8 || B,7/2 D/ D2 z D |!<(! D4 C2!<)! B,2 | %28
w: son, e-|lei- son, e-|lei- son.||Ky- ri- e e-|lei- son, e-|
!>(! A,4!>)! A,4 | C7/2 E/ E2 z E | E4 (D2 C2) |!>(! C7/2 B,/ B,2!>)! z2 | %32
w: lei- son,|Ky- ri- e e-|lei- son, *|Ky- ri- e,|
!ff!!>(! E,7/2 G,/ G,4!>)! |!pp! (G,4 A,4) | B,4 G,4 | E,4 F,4 | B,,4 z4 |] %37
w: Ky- ri- e|e\- *|lei- son,|Ky- ri-|e.|

